X:1

T:Devil in a Bush, The

M:C

L:1/8

R:Reel

S:William Vickers’ manuscripts (pg. 21), 1770-1772

Z:AK/Fiddler’s Companion

K:G

g2 dc B2 AG|FGAB cAAB|g2 dc B2 AG|FGAc BGG:|

|:E|DGBG AGBG|DGBG cAAB|cdef gdcB|cAdc BGG:|

 

DEVIL IN A CANEBREAK, THE. Old‑Time, Breakdown. C Major. Standard tuning. AABB. Ford (Traditional Music in America), 1980; pg. 124.

 

DEVIL IN DUBLIN [1], THE. Irish, Jig. D Major. Standard tuning. AA'B. One of the airs "sent to me during the last seven or eight years by Mr. Patrick O'Leary of Graignamanagh, Co. Kilkenny, a good amateur musician with a great knowledge of the popular airs of that part of Ireland. Most of these he wrote down from his own memory" (Joyce). Joyce (Old Irish Folk Music and Song), 1909; No. 301, pg. 141.

 

DEVIL IN DUBLIN [2], THE (An Diabal 'San Baile-Ata-Cliat). Irish, Jig or March (6/8 time). G Major. Standard tuning. AABB. A variation of version #1. Kerr (Merry Melodies), vol. 4; No. 207, pg. 23. O'Neill (Music of Ireland: 1850 Melodies), 1903/1979; No. 1827, pg. 343.

